X:27
T:Go fetch me Lord Thomas
Z:Jack Campin, http://www.campin.me.uk/
F:Jack Campin's Nine-Note Tunebook
% last edit 03-02-2013
S:Blaikie MS (NLS MS.1578) p35, Blaikie #113
M:6/8
L:1/8
Q:3/8=80
K:AMin
E   |A2A ABc|BcA G2 E   |A2A ABc|B2A G2
c/A/|GEC CDE|G2E D2 E/F/|G2G c2A|G3  C2|]

